X:1
T:Title
%%score { ( 1 2 5 ) | ( 3 4 ) }
L:1/8
Q:1/4=90
M:6/8
K:G
V:1 treble nm="Grand Piano"
V:2 treble 
V:5 treble 
V:3 bass 
V:4 bass 
V:1
 B_B=B z B,E | .F3 B3 | z3 .^c3 | c6 | B_B=B z B,E | .F3 B3 | z3 .A3 | A6 | d6[K:bass][K:treble] | %9
w: Adam~Geibel * * * *|||||||||
 .c3 .[Ec]3 | [^DB][DB][DB] [EB]2 [B,EG] | [B,^DB]6 | e6 | .[Bd]3 .[Bd]3 | BBB [Fd]2 [DA] | %15
w: ||||||
 [DB]6[K:bass] | GFG A2 G | [B,DB]6 |] %18
w: |||
V:2
 z3 .D3 | z B,G z B,B, | ddd z G^c | z FE DEF | z3 .D3 | z B,G z B,B, | AAA z EE | z FE .D3 | %8
 z3[K:bass][K:treble] .c3 | A[F,CE][Fd] z [G,B,][DB] | x6 | x6 | z3 .d3 | %13
 z [^G,D][ce] z [A,C][Ac] | x6 | z[K:bass] B,,D, .G,3 | x6 | x6 |] %18
V:3
 G,,[D,G,B,][D,G,B,] G,,[D,G,][D,G,B,] | G,,[D,G,][D,G,B,] G,,[D,G,][D,G,] | %2
 z[K:treble] [DG][DG][K:bass] z E[EG] | [D,,D,][D,A,D][D,G,D] [D,F,][D,G,D][D,A,D] | %4
 G,,[D,G,B,][D,G,B,] G,,[D,G,][D,G,B,] | G,,[D,G,][D,G,B,] G,,[D,G,][D,G,] | %6
 z[K:treble] [DF][DF][K:bass] z ^CC | [D,,D,][D,A,C][D,G,C] .[D,F,C]3 | D,,D,D, D,,[D,F,][D,F,C] | %9
 D,,D,[D,F,C] G,,D,[D,G,B,] | [B,,F,][B,,F,][B,,F,] [E,G,]2 E, | B,,^D,F, .B,,3 | %12
 E,,E,E, E,,[E,^G,][E,G,D] | E,,E,[E,^G,D] A,,E,[E,A,C] | [G,D][G,D][G,D] [D,A,]2 [D,F,] | %15
 .[G,,G,]3 .G,,3 | [^D,G,_B,^D][D,G,B,D][D,G,B,D] [D,G,B,D]2 [D,G,B,D] | [G,,D,G,]6 |] %18
V:4
 x6 | x6 | [B,,B,]3[K:treble][K:bass] [A,,A,]3 | x6 | x6 | x6 | %6
 [A,,A,]3[K:treble][K:bass] [A,,A,]3 | x6 | x6 | x6 | x6 | x6 | x6 | x6 | x6 | x6 | x6 | x6 |] %18
V:5
 x6 | x6 | x6 | x6 | x6 | x6 | x6 | x6 | D[K:bass][F,CE][F,CF][K:treble] z CB | x6 | x6 | x6 | %12
 E[^G,DF][G,D^G] z Dc | x6 | x6 | x[K:bass] x5 | x6 | x6 |] %18

